Pictures/mode-switcher-off.svg

<svg width="112" height="24" viewBox="0 0 112 24" fill="none" xmlns="http://www.w3.org/2000/svg">
<g id="Group 15">
<g id="Group 13">
<rect id="Rectangle" x="36" width="48" height="24" rx="12" fill="white"/>
<circle id="Oval" cx="48" cy="12" r="7" fill="#5964E0"/>
</g>
<path id="Combined Shape" fill-rule="evenodd" clip-rule="evenodd" d="M10 5.3646C9.67033 5.3646 9.38775 5.07003 9.38775 4.72636V2.83618C9.38775 2.49251 9.67033 2.19794 10 2.19794C10.3297 2.19794 10.6122 2.49251 10.6122 2.83618V4.72636C10.6122 5.07003 10.3297 5.3646 10 5.3646ZM6.40172 7.9521C7.31472 7.1021 8.60365 6.5521 10 6.5521C11.3963 6.5521 12.6853 7.0771 13.5983 7.9521C14.5113 8.8021 15.102 10.0021 15.102 11.3021C15.102 12.6021 14.5113 13.8021 13.5983 14.6521C12.6853 15.5021 11.3963 16.0521 10 16.0521C8.60365 16.0521 7.31472 15.5271 6.40172 14.6521C5.48872 13.8021 4.89796 12.6021 4.89796 11.3021C4.89796 10.0021 5.46187 8.8021 6.40172 7.9521ZM3.0593 5.71002L4.54178 7.14772C4.83827 7.40912 5.26954 7.40912 5.51213 7.14772C5.78167 6.88632 5.78167 6.46808 5.51213 6.20668L4.02965 4.76899C3.76011 4.50759 3.32884 4.50759 3.0593 4.76899C2.78976 5.03039 2.78976 5.44862 3.0593 5.71002ZM0.658124 10.9063H2.60718C2.96156 10.9063 3.26531 11.1803 3.26531 11.5C3.26531 11.8197 2.96156 12.0938 2.60718 12.0938H0.658124C0.303749 12.0938 0 11.8197 0 11.5C0 11.1803 0.303749 10.9063 0.658124 10.9063ZM5.51213 15.8523C5.24259 15.5909 4.81132 15.5909 4.54178 15.8523L3.0593 17.29C2.78976 17.5514 2.78976 17.9697 3.0593 18.2311C3.32884 18.4925 3.76011 18.4925 4.02965 18.2311L5.51213 16.7934C5.78167 16.532 5.78167 16.1137 5.51213 15.8523ZM10 17.6354C10.3297 17.6354 10.6122 17.93 10.6122 18.2737V20.1639C10.6122 20.5075 10.3297 20.8021 10 20.8021C9.67033 20.8021 9.38775 20.5075 9.38775 20.1639V18.2737C9.38775 17.93 9.67033 17.6354 10 17.6354ZM16.9407 17.29L15.4582 15.8523C15.1617 15.5909 14.7305 15.5909 14.4879 15.8523C14.2183 16.1137 14.2183 16.532 14.4879 16.7934L15.9704 18.2311C16.2399 18.4925 16.6712 18.4925 16.9407 18.2311C17.2102 17.9697 17.2102 17.5514 16.9407 17.29ZM16.7347 11.5C16.7347 11.1803 17.0384 10.9063 17.3928 10.9063H19.3419C19.6963 10.9063 20 11.1803 20 11.5C20 11.8197 19.6963 12.0938 19.3419 12.0938H17.3928C17.0384 12.0938 16.7347 11.8197 16.7347 11.5ZM14.4879 7.14772C14.7574 7.40912 15.1887 7.40912 15.4582 7.14772L16.9407 5.71002C17.2102 5.44862 17.2102 5.03039 16.9407 4.76899C16.6712 4.50759 16.2399 4.50759 15.9704 4.76899L14.4879 6.20668C14.2183 6.46808 14.2183 6.88632 14.4879 7.14772Z" fill="white"/>
<path id="Combined Shape_2" fill-rule="evenodd" clip-rule="evenodd" d="M106 6C104.358 6 102.842 6.69474 101.768 7.76842C100.663 8.84211 100 10.3579 100 12C100 13.6421 100.695 15.1579 101.768 16.2316C102.842 17.3368 104.358 18 106 18C107.642 18 109.158 17.3053 110.232 16.2316C111.305 15.1579 112 13.6421 112 12C112 11.8147 111.991 11.631 111.974 11.4494C111.867 12.369 111.438 13.2044 110.821 13.8211C110.105 14.5368 109.095 15 108 15C106.905 15 105.895 14.5579 105.179 13.8211C104.463 13.1053 104 12.0947 104 11C104 9.90526 104.442 8.89474 105.179 8.17895C105.895 7.46316 106.905 7 108 7C108.716 7 109.397 7.18933 109.982 7.52669C108.929 6.56718 107.519 6 106 6Z" fill="white"/>
</g>
</svg>

<svg xmlns="http://www.w3.org/2000/svg" width="112" height="24" fill="none"><rect width="48" height="24" x="36" fill="#fff" rx="12"/><circle cx="48" cy="12" r="7" fill="#5964E0"/><path fill="#fff" fill-rule="evenodd" d="M10 5.365c-.33 0-.612-.295-.612-.639v-1.89c0-.343.282-.638.612-.638s.612.295.612.638v1.89c0 .344-.282.639-.612.639ZM6.402 7.952A5.314 5.314 0 0 1 10 6.552c1.396 0 2.685.525 3.598 1.4.913.85 1.504 2.05 1.504 3.35 0 1.3-.59 2.5-1.504 3.35a5.314 5.314 0 0 1-3.598 1.4c-1.396 0-2.685-.525-3.598-1.4-.913-.85-1.504-2.05-1.504-3.35 0-1.3.564-2.5 1.504-3.35ZM3.059 5.71l1.483 1.438c.296.261.728.261.97 0a.649.649 0 0 0 0-.941L4.03 4.769a.698.698 0 0 0-.97 0 .649.649 0 0 0 0 .941Zm-2.4 5.196h1.948c.355 0 .658.274.658.594 0 .32-.303.594-.658.594H.658C.304 12.094 0 11.82 0 11.5c0-.32.304-.594.658-.594Zm4.853 4.946a.698.698 0 0 0-.97 0L3.059 17.29a.649.649 0 0 0 0 .941c.27.261.701.261.97 0l1.483-1.438a.649.649 0 0 0 0-.94ZM10 17.635c.33 0 .612.295.612.639v1.89c0 .343-.282.638-.612.638s-.612-.294-.612-.638v-1.89c0-.344.282-.639.612-.639Zm6.94-.345-1.482-1.438c-.296-.261-.728-.261-.97 0a.649.649 0 0 0 0 .941l1.482 1.438c.27.261.701.261.97 0a.649.649 0 0 0 0-.941Zm-.205-5.79c0-.32.303-.594.658-.594h1.949c.354 0 .658.274.658.594 0 .32-.304.594-.658.594h-1.95c-.354 0-.657-.274-.657-.594Zm-2.247-4.352c.27.261.7.261.97 0l1.483-1.438a.649.649 0 0 0 0-.941.698.698 0 0 0-.97 0l-1.483 1.438a.649.649 0 0 0 0 .94ZM106 6a6.022 6.022 0 0 0-4.232 1.768A5.89 5.89 0 0 0 100 12c0 1.642.695 3.158 1.768 4.232A5.892 5.892 0 0 0 106 18a6.022 6.022 0 0 0 4.232-1.768A6.023 6.023 0 0 0 112 12c0-.185-.009-.369-.026-.55A4.032 4.032 0 0 1 108 15a3.926 3.926 0 0 1-2.821-1.179A4.013 4.013 0 0 1 104 11c0-1.095.442-2.105 1.179-2.821A4.013 4.013 0 0 1 108 7c.716 0 1.397.19 1.982.527A5.902 5.902 0 0 0 106 6Z" clip-rule="evenodd"/></svg>
